X: 1838
T: Sûzinâk (Zirgüleli) Seyir
C: Erol Bingöl
O: Turkey
F: http://compmusic.upf.edu/node/140
N: suzinak-zirgule--seyir--aksak--1--erol_bingol
N: makam= suzinak-zirgule
N: form= seyir
N: usul= aksak = 9/8
M: 9/8
L: 1/16
K: C _1/4B _7/8e _7/8A ^f
Q: 1/4=120
%%MIDI tuningsystem comma53
c4 d4 e2f2 g2f2 e2 | d3cB2 c2d8z2  | \
w:   |   | 
c2de d2c2 B2c2 d2c2 B2 | 
w:   | 
B3ABA AGG8z2  | G3A B2c2 d2e2 f2g2 =a2 | \
w:   |   | 
_b2 =agf2 e2d2 c2B4z2  | 
w:   | 
c2d2 e2g2 f2e2 d2c2 d2 | B3cBA AGG8z2  | |


